X:16241
T:Swinging on the Gate
R:reel
Z:Transcribed by Henrik Norbeck.
M:C|
K:G
gedB G2AB|cABG AGEG|DGBd g2fg|eaag fdef|
gedB G2AB|cABG AGEG|cABG AGEG|DGGF GABd:|
|:~g3a bgaf|gfed cBAG|EAAB cBAG|EAAB cdef|
~g3a bgaf|gfed cBAB|cABG AGEG|DGGF GABd:|


